icons/hash-16.svg

<svg width="16" height="16" viewBox="0 0 16 16" fill="none" xmlns="http://www.w3.org/2000/svg">
<path fill-rule="evenodd" clip-rule="evenodd" d="M6.36849 1.00941C6.7775 1.07485 7.05602 1.45947 6.99058 1.86848L6.56954 4.49999H10.5505L11.0094 1.6315C11.0749 1.22248 11.4595 0.943967 11.8685 1.00941C12.2775 1.07485 12.556 1.45947 12.4906 1.86848L12.0695 4.49999H14.25C14.6642 4.49999 15 4.83578 15 5.24999C15 5.6642 14.6642 5.99999 14.25 5.99999H11.8295L11.1895 9.99999H14.25C14.6642 9.99999 15 10.3358 15 10.75C15 11.1642 14.6642 11.5 14.25 11.5H10.9495L10.4906 14.3685C10.4251 14.7775 10.0405 15.056 9.63151 14.9906C9.2225 14.9251 8.94398 14.5405 9.00942 14.1315L9.43046 11.5H5.44954L4.99058 14.3685C4.92514 14.7775 4.54052 15.056 4.13151 14.9906C3.7225 14.9251 3.44398 14.5405 3.50942 14.1315L3.93046 11.5H1.75C1.33579 11.5 1 11.1642 1 10.75C1 10.3358 1.33579 9.99999 1.75 9.99999H4.17046L4.81046 5.99999H1.75C1.33579 5.99999 1 5.6642 1 5.24999C1 4.83578 1.33579 4.49999 1.75 4.49999H5.05046L5.50942 1.6315C5.57486 1.22248 5.95948 0.943967 6.36849 1.00941ZM6.32954 5.99999L5.68954 9.99999H9.67046L10.3105 5.99999H6.32954Z" fill="#24292E"/>
</svg>

<svg xmlns="http://www.w3.org/2000/svg" width="16" height="16" viewBox="0 0 16 16"><path fill-rule="evenodd" d="M6.368 1.01a.75.75 0 01.623.858L6.57 4.5h3.98l.46-2.869a.75.75 0 011.48.237L12.07 4.5h2.18a.75.75 0 010 1.5h-2.42l-.64 4h3.06a.75.75 0 010 1.5h-3.3l-.46 2.868a.75.75 0 01-1.48-.236l.42-2.632H5.45l-.46 2.868a.75.75 0 01-1.48-.236l.42-2.632H1.75a.75.75 0 010-1.5h2.42l.64-4H1.75a.75.75 0 010-1.5h3.3l.46-2.869a.75.75 0 01.858-.622zM6.33 6l-.64 4h3.98l.64-4H6.33z"/></svg>
